X: 1256
T: Kimseler Gelmez...
C: Şevki Bey
O: Turkey
F: http://compmusic.upf.edu/node/140
N: ussak--sarki--agiraksak--kimseler_gelmez--sevki_bey
N: makam= ussak
N: form= sarki
N: usul= agiraksak = 9/4
M: 9/4
L: 1/16
K: C _2/4B   
Q: 1/4=66
%%MIDI tuningsystem comma53
z2f4fe e3d d3c c3B B3A A3B c2d2 e2f2  | \
w:   | 
e2f2 e2f2 a2g2 f2e2 e3d c2e2 d8 e2^3/4f2  | 
w:   | 
g3^3/4f g2_b2 a2g2 =f2e2 d3c d2e2 d3c B3A G4  | \
w:   | 
(3A2B2c2 (3d2e2f2 g2ag fed2 c3B BcBA A3B c2d2 e2g2  | 
w:   | 
z2f4fe e3d d3c c3B B3A A3B c2d2 e2f2  | \
w:   | 
e2f2 e2f2 a2g2 f2e2 e3d c2e2 d8 e2^3/4f2  | 
w:   | 
g3^3/4f g2_b2 a2g2 =f2e2 d3c d2e2 d3c B3A G4  | \
w:   | 
(3A2B2c2 (3d2e2f2 g2ag fed2 c3B BcBA A8 z4  | 
w:   | 
z8-z2G4A2 A8 c2BA B4 c4  | d2{e}dc B2A2 G2.d4f2 e2d2 c2B2 c2BA A4 B2c2  | 
w:  Kim se ler  gel  |  *  *  *  *  *  *  *  mez  se nin  *  *  *  fer  | 
A4 GABc d2c4d2 d8 d2{e}dc c8  | c2{d}c_1/4B B^AB2 z2d2 ^c2B2 c2d2 e2{f}ed d6ef edd=c  | 
w:  *  SAZ *  *  *  *  yâd_ ı  â teş  |  *  *  *  *  *  *  *  bâ *  *  *  *  *  *  rı *  na   SAZ  | 
d4 dcBc d2d4f2 e2d2 c2B2 c2d2 e2^3/4f2 g2f2  | \
w:  *  *  *  *  *  *  Yan dın_ ey  *  *  *  bî  | 
a2g4d2 z2e2 d2c2 B2c2 d2{e}dc c2d2 c2B2 c2d2  | 
w:  *  *  *  çâ *  re  dil  *  *  *  *  *  yan  | 
d2{f}ed c2B2 z2c4d2 d2{f}ed c2B2 c2BA A8  | \
w:  *  *  *  *  *  *  dın  me lâ *  *  *  *  *  met   | 
z2A4c2 c2BA B2d2 dc2B cBBA A6ef eddc  | 
w:  nâ *  *  *  *  *  *  *  *  *  *  *  rı *  na   SAZ  | 
d4 de^3/4fg a2a2 g2=f2 e2d2 c2B2 c2d2 e2^3/4f2 g2f2  | \
w:  *  *  *  *  *  *  Yan *  dın_ ey  *  *  *  bî  | 
a2g4d2 z2e2 d2c2 B2c2 d2{e}dc c2d2 c2B2 c2d2  | 
w:  *  *  *  çâ *  re  dil  *  *  *  *  *  yan  | 
d2{f}ed c2B2 z2c4d2 e2{f}ed c2B2 c2BA A8  | \
w:  *  *  *  *  *  *  dın  me lâ *  *  *  *  *  *  met   | 
z2A4c2 c2BA B2d2 dc2B cBBA A6^3/4fg agfg  | 
w:  nâ *  *  *  *  *  *  *  *  *  *  *  rı *  na   SAZ  | 
a8 z2g4a2 a8 g2a2 b2c'2 _7/8b2a2  | \
w:  *  Ye's_ i  sev dâ   | 
g2^3/4f2 _3/4e2d2 c2d2 _2/4e2g2 gf2_3/4e feed d6B2 c2BA  | 
w:  *  *  *  *  *  ren *  gi  çök *  *  *  *  *  *  müş   | 
A4 GABc d2c4d2 d8 d2{e}dc c8  | c2{d}c_1/4B B^AB2 z2d2 ^c2B2 c2d2 e2{f}ed d6ef edd=c  | 
w:  *  SAZ *  *  *  *  gül  gi bi  ruh  |  *  *  *  *  *  *  *  sâ *  *  *  *  *  *  rı *  na   SAZ  | 
d4 dcBc d2d4f2 e2d2 c2B2 c2d2 e2^3/4f2 g2f2  | \
w:  *  *  *  *  *  *  Yan dın_ ey  *  *  *  bî  | 
a2g4d2 z2e2 d2c2 B2c2 d2{e}dc c2d2 c2B2 c2d2  | 
w:  *  *  *  çâ *  re  dil  *  *  *  *  *  yan  | 
d2{f}ed c2B2 z2c4d2 d2{f}ed c2B2 c2BA A8  | \
w:  *  *  *  *  *  *  dın  me lâ *  *  *  *  *  met   | 
z2A4c2 c2BA B2d2 dc2B cBBA A6ef eddc  | 
w:  nâ *  *  *  *  *  *  *  *  *  *  *  rı *  na   SAZ  | 
d4 de^3/4fg a2a2 g2=f2 e2d2 c2B2 c2d2 e2^3/4f2 g2f2  | \
w:  *  *  *  *  *  *  Yan *  dın_ ey  *  *  *  bî  | 
a2g4d2 z2e2 d2c2 B2c2 d2{e}dc c2d2 c2B2 c2d2  | 
w:  *  *  *  çâ *  re  dil  *  *  *  *  *  yan  | 
d2{f}ed c2B2 z2c4d2 e2{f}ed c2B2 c2BA A8  | \
w:  *  *  *  *  *  *  dın  me lâ *  *  *  *  *  *  met   | 
z2A4c2 c2BA B2d2 dc2B cBBA A6|
w:  nâ *  *  *  *  *  *  *  *  *  *  *  rı *  na    | 


